P2
15 17
11
0  0  0  0  0  0  0  0  0  0  2  2  2  0  0
0  0  9  0  0  0  0  0  0  2  2  2  2  2  0
0  0  0  0  0  0  0  0  0  2  2  2  2  2  0
0  0  0  0  0  6  0  0  0  2  2  2  2  2  0
0  0  0  0  0  0  0  0  0  0  2  2  2  0  0
0  0  0  0  0  0  0  0  0  0  0  0  0  0  0
0  0  0  0  0  0  0  0  0  0  0  0  0  0  0
0  0  0  0  0  0  0  0  0  0  0  0  0  0  0
0  0  0  0  8  8  8  8  8  0  0  0  0  0  0
0  0  0  8  8  8  8  8  8  8  0  0  0  0  0
0  0  8  8  8  8  8  8  8  8  8  0  0  0  0
0  0  8  8  8  8  8  8  8  8  8  0  0  0  0
0  0  8  8  8  8  8  8  8  8  8  0  0  0  0
0  0  8  8  8  8  8  8  8  8  8  0  0  0  0
0  0  8  8  8  8  8  8  8  8  8  0  0  0  0
0  0  0  8  8  8  8  8  8  8  0  0  0  0  0
0  0  0  0  8  8  8  8  8  0  0  0  0  0  0