P2
20 20
255
0 0 0 0 0 0 0 0 0 0 0 0 0 0 0 0 0 0 0 0
0 0 0 0 0 0 0 0 0 0 0 0 0 0 0 0 0 0 0 0
0 0 0 0 0 0 0 0 0 0 0 0 0 0 0 0 0 0 0 0
0 0 0 50 50 50 50 50 0 0 0 0 0 0 0 0 0 0 0 0
0 0 0 50 50 50 50 50 0 0 0 0 0 0 100 100 100 0 0 0
0 0 0 50 50 50 50 50 0 0 0 0 0 0 100 100 100 0 0 0
0 0 0 50 50 50 50 50 0 0 0 0 0 0 100 100 100 0 0 0
0 0 0 50 50 50 50 50 0 0 0 0 0 0 0 0 0 0 0 0
0 0 0 0 0 0 0 0 0 0 0 0 0 0 0 0 0 0 0 0
0 0 0 0 0 0 0 0 0 0 0 0 0 0 0 0 0 0 0 0
0 0 0 0 0 0 0 0 0 0 0 0 0 0 0 0 0 0 0 0
0 0 0 0 0 0 0 0 0 0 0 0 0 0 0 0 0 0 0 0
0 0 0 0 0 0 0 0 0 0 0 0 0 0 0 0 0 0 0 0
0 0 0 0 0 0 0 0 0 0 0 0 0 0 0 0 0 0 0 0
0 0 0 0 0 0 0 0 0 150 150 150 0 0 0 0 0 0 0 0
0 0 0 0 0 0 0 0 0 150 150 150 0 0 0 0 0 0 0 0
0 0 0 0 0 0 0 0 0 150 150 150 0 0 0 0 0 0 0 0
0 0 0 0 0 0 0 0 0 0 0 0 0 0 0 0 0 0 0 0
0 0 0 0 0 0 0 0 0 0 0 0 0 0 0 0 0 0 0 0
0 0 0 0 0 0 0 0 0 0 0 0 0 0 0 0 0 0 0 0
